X: 1689
T: Ma Seal's 'Dan O'Grady's Hack'
C:Dave Braham, 1834 - 1905
B: australian traditional tunes wiki
M:4/4
L:1/8
R: Set Tune
Q: 1/4=120
K:C
V:1 
c|"C"c2g2"G7"f2d2|"C"c2eee2cB|"F"A2c2"G7"B2A2|"C"G2c4de|"G7"f2e2f2d2|"C"g2e4cB|"F"A2d2c3A|"G7"B6 (3dfd|
"C"c2g2"G7"f2d2|"C"c2eee2cB|"F"A2c2"G7"B2A2|"C"G2c4e2|g2e2c2e2|"F"f2A2f3d|"G7"c2B2A2B2|"C"c6 (3Adf|
g8-|g2e2d2c2|"F"A2f6-|f2d2c2B2|"C"G4c3d|e2g4e2|g2e2c2e2|"G7"d6z2|
"C"eg-g6-|g2e2d2c2|"F"A8-|A2c2B2A2|"C"G4c3d|e2g2"F"f2d2|"G7"c2B2A2B2|"C"c4-c3||
% abcbook-tune_id 6342d53a6ed2030f3ad996d6


% abcbook-boost 0
% abcbook-tablature 
% abcbook-transpose 
% abcbook-lastupdated 1665324378069
% abcbook-soundfonts 
% abcbook-repeats 1
% NFF Book 2016
% Written by ABC2Win  2.2.124 BETA on 6/12/2008

